build/img/decor.svg

<svg width="193" height="45" viewBox="0 0 193 45" fill="none" xmlns="http://www.w3.org/2000/svg">
<path d="M189.692 18.3041C190.727 17.039 191.092 15.9387 191.014 14.9815C190.936 14.0243 190.399 12.9973 189.173 11.916C187.941 10.8299 186.102 9.77137 183.649 8.7796C178.746 6.79794 171.669 5.19196 162.883 4.06025C145.334 1.79965 121.256 1.46592 94.8209 3.61477C68.3861 5.76362 44.6774 9.98192 27.724 15.0472C23.5976 16.28 20.6562 17.293 16.6456 18.8622L16.3072 19.0924L12.8345 19.0924L13.263 18.8622C29.5724 11.5796 59.8055 5.13794 94.714 2.30027C147.71 -2.00772 191.414 3.62202 192.328 14.8746C193.243 26.1273 151.023 38.7416 98.0265 43.0496C45.0303 47.3576 1.3268 41.7279 0.41209 30.4753C0.234888 28.2954 1.67652 26.0643 4.50172 23.8525L4.50172 25.5638C3.92905 26.0667 3.44488 26.5614 3.04847 27.0458C2.01317 28.3109 1.64878 29.4112 1.72659 30.3684C1.80439 31.3256 2.34171 32.3526 3.56775 33.4339C4.79928 34.52 6.63835 35.5785 9.09188 36.5703C13.9943 38.552 21.0718 40.158 29.8572 41.2897C47.4061 43.5503 71.4849 43.884 97.9196 41.7351C124.354 39.5863 148.063 35.368 165.017 30.3027C173.504 27.767 180.229 25.039 184.747 22.2915C187.008 20.9165 188.652 19.5749 189.692 18.3041Z" fill="#FFCE22"/>
<path d="M10.5565 21.6235C9.63662 22.1006 8.7815 22.5792 7.99352 23.0584C7.80499 23.173 7.62075 23.2874 7.4408 23.4016L7.4408 21.8513C7.56691 21.7753 7.69459 21.6994 7.82384 21.6235L10.5565 21.6235Z" fill="#FFCE22"/>
</svg>

<svg width="193" height="45" fill="none" xmlns="http://www.w3.org/2000/svg"><path d="M189.692 18.304c1.035-1.265 1.4-2.365 1.322-3.322-.078-.958-.615-1.985-1.841-3.066-1.232-1.086-3.071-2.145-5.524-3.136-4.903-1.982-11.98-3.588-20.766-4.72-17.549-2.26-41.627-2.594-68.062-.445-26.435 2.149-50.144 6.367-67.097 11.432-4.126 1.233-7.068 2.246-11.078 3.815l-.339.23h-3.472l.428-.23C29.573 11.58 59.806 5.138 94.714 2.3c52.996-4.308 96.7 1.322 97.614 12.575.915 11.252-41.305 23.867-94.302 28.175C45.03 47.358 1.326 41.728.412 30.475c-.177-2.18 1.265-4.41 4.09-6.623v1.712a12.71 12.71 0 0 0-1.454 1.482c-1.035 1.265-1.4 2.365-1.321 3.322.077.958.615 1.985 1.84 3.066C4.8 34.52 6.639 35.579 9.093 36.57c4.902 1.982 11.98 3.588 20.765 4.72 17.55 2.26 41.628 2.594 68.063.445 26.434-2.149 50.143-6.367 67.097-11.432 8.487-2.536 15.212-5.264 19.73-8.012 2.261-1.375 3.905-2.716 4.945-3.987Z" fill="#FFCE22"/><path d="M10.556 21.623a43.94 43.94 0 0 0-2.562 1.435c-.189.115-.373.23-.553.344v-1.55c.126-.077.254-.153.383-.229h2.732Z" fill="#FFCE22"/></svg>
